X:1
T: A. M. Shinnie
C:Angus Fitchett
R:Jig
Q:180
K:D
M:6/8
L:1/16
A2|d2e2f2 e2d2c2|B2c2d2 A4F2|G2A2B2 A2d2e2|f2a2f2 e4A2|d2e2f2 e2d2c2|B2c2d2 A4F2|G2A2B2 A2B2c2|d6 d4A2|
d2e2f2 e2d2c2|B2c2d2 A4F2|G2A2B2 A2d2e2|f2a2f2 e4A2|d2e2f2 e2d2c2|B2c2d2 A4F2|G2A2B2 A2B2c2|d6d4A2|
f4f2 d2e2f2|a2g2f2 e4A2|d4d2 B2c2d2|f2e2d2 c4^A2|B4B2 d2c2B2|A4A2 d4e2|f4f2 a4f2|f2e2d2 e4A2|
f4f2 d2e2f2|a2g2f2 e4A2|d4d2 B2c2d2|f2e2d2 c4^A2|B4B2 d2c2B2|A4A2 d4e2|f2g2f2 e2d2c2|d6d4||
